X:4
T:Shenandoah Falls
S:Bernie Waugh
R:reel
S:Printed page from Debby Knight
M:4/4
L:1/8
K:A
 cd |\
"A"e2ef edcB | AB (3cBA "D"d4 | "A"c2cA "(F#m)"B2{cB}Ac | "B(m)7"BAGF "E"E2cd |\
"A"e2ef edcB | AB (3cBA "D"d4 | "A"cBAc "E7"BAG2 | "A"A6 :|
|: G2 |\
"Bm"F4 B4 | F2AB- BAF2 | "A"A2cA BcAB | cABc- cBA2 |\
"Bm"F4 B4 | F2AB- Bfed | "A"cdec "E"BAG2 | "A"A4 A2 :|
